svg/color/eidos.svg

<?xml version="1.0" encoding="UTF-8" ?>
<!DOCTYPE svg PUBLIC "-//W3C//DTD SVG 1.1//EN" "http://www.w3.org/Graphics/SVG/1.1/DTD/svg11.dtd">
<svg width="250pt" height="250pt" viewBox="0 0 250 250" version="1.1" xmlns="http://www.w3.org/2000/svg">
<g id="#ffffffff">
<path fill="#ffffff" opacity="1.00" d=" M 0.00 0.00 L 250.00 0.00 L 250.00 250.00 L 0.00 250.00 L 0.00 0.00 M 117.48 13.75 C 104.10 16.22 93.60 29.37 94.49 43.02 C 94.45 59.08 110.07 72.84 125.99 70.88 C 138.17 70.04 149.02 60.48 151.63 48.60 C 155.08 35.81 147.80 21.61 136.04 15.95 C 130.32 13.11 123.69 12.86 117.48 13.75 M 188.37 56.38 C 175.68 59.92 166.82 72.92 167.59 85.97 C 168.27 93.44 171.61 100.73 177.36 105.65 C 189.08 116.74 210.28 114.92 219.73 101.73 C 226.50 93.04 227.53 80.34 222.34 70.64 C 216.05 58.83 201.20 52.68 188.37 56.38 M 45.51 57.81 C 31.86 60.47 21.57 74.00 22.75 87.86 C 23.53 93.33 25.21 98.85 28.64 103.28 C 34.25 110.72 43.64 115.32 53.01 114.73 C 67.49 114.46 80.62 101.55 80.63 86.97 C 81.40 75.42 74.27 63.83 63.59 59.35 C 57.96 56.78 51.51 56.90 45.51 57.81 M 133.47 88.58 C 127.80 90.27 124.35 97.91 127.99 102.95 C 131.01 108.55 139.57 109.47 143.85 104.90 C 147.71 100.86 147.31 93.58 142.86 90.15 C 140.23 88.05 136.63 87.97 133.47 88.58 M 104.58 89.74 C 100.85 90.83 98.48 94.41 97.70 98.05 C 96.84 104.99 104.94 111.82 111.51 108.43 C 117.32 106.22 119.69 98.13 115.74 93.27 C 113.31 89.75 108.55 88.69 104.58 89.74 M 147.62 113.58 C 144.51 114.94 142.50 117.97 141.70 121.18 C 141.05 125.71 144.15 130.29 148.30 132.00 C 154.25 134.47 161.84 129.44 161.60 122.94 C 162.25 116.00 153.80 110.01 147.62 113.58 M 91.44 114.46 C 84.45 116.36 82.12 126.60 87.90 131.13 C 92.51 136.05 101.37 133.86 103.80 127.75 C 107.45 120.46 98.92 111.31 91.44 114.46 M 192.40 135.77 C 184.35 137.60 176.88 142.62 172.90 149.95 C 165.50 162.73 170.01 180.67 182.64 188.36 C 190.76 193.55 201.51 194.13 210.29 190.28 C 222.68 184.88 230.27 169.81 226.30 156.73 C 224.24 148.14 217.90 140.82 209.82 137.34 C 204.40 134.85 198.18 134.79 192.40 135.77 M 134.39 138.29 C 127.41 141.14 126.66 152.11 133.35 155.70 C 139.47 160.46 149.30 154.49 148.64 147.00 C 148.67 140.18 140.46 135.14 134.39 138.29 M 45.39 139.42 C 31.21 143.00 21.80 158.65 24.97 172.90 C 27.79 188.79 45.60 199.94 61.09 195.10 C 76.58 191.38 86.51 173.19 80.94 158.20 C 76.66 143.67 59.70 135.39 45.39 139.42 M 106.35 139.15 C 98.51 141.38 97.48 153.50 104.76 157.08 C 111.05 161.59 120.43 155.41 119.69 148.00 C 119.73 141.56 112.28 136.66 106.35 139.15 M 121.42 179.61 C 110.27 181.41 100.83 190.65 98.43 201.64 C 94.37 216.60 105.27 233.46 120.43 236.29 C 127.20 237.29 134.49 236.96 140.57 233.51 C 149.66 228.56 155.91 218.45 155.56 208.00 C 155.89 197.51 149.52 187.48 140.39 182.55 C 134.69 179.24 127.83 178.77 121.42 179.61 Z" />
<path fill="#ffffff" opacity="1.00" d=" M 118.42 27.43 C 127.80 23.53 139.22 32.00 138.77 42.00 C 139.18 50.71 130.66 58.36 122.09 57.50 C 115.46 56.82 109.19 51.53 108.38 44.74 C 106.93 37.41 111.42 29.85 118.42 27.43 Z" />
<path fill="#ffffff" opacity="1.00" d=" M 193.30 69.09 C 203.83 66.14 214.78 77.31 211.61 87.73 C 209.91 95.79 201.05 101.35 193.05 99.25 C 184.90 97.28 179.32 88.22 181.70 80.06 C 183.32 74.72 187.76 70.22 193.30 69.09 Z" />
<path fill="#ffffff" opacity="1.00" d=" M 46.37 71.26 C 51.12 69.49 56.71 70.25 60.79 73.26 C 64.45 75.69 66.39 79.95 67.26 84.12 C 68.11 91.76 62.43 99.60 54.80 100.95 C 46.11 103.01 36.91 95.89 36.38 87.06 C 35.62 80.31 40.18 73.69 46.37 71.26 Z" />
<path fill="#ffffff" opacity="1.00" d=" M 193.37 149.29 C 202.89 145.64 214.19 153.88 213.70 164.00 C 214.08 173.47 204.02 181.06 194.99 179.04 C 186.43 177.24 180.20 167.07 183.77 158.78 C 185.27 154.35 188.92 150.73 193.37 149.29 Z" />
<path fill="#ffffff" opacity="1.00" d=" M 49.36 152.19 C 58.16 149.36 68.56 156.74 68.73 166.02 C 69.79 174.72 61.68 183.12 52.99 182.57 C 44.94 182.53 37.53 175.20 38.26 166.99 C 37.77 160.14 43.02 154.08 49.36 152.19 Z" />
<path fill="#ffffff" opacity="1.00" d=" M 122.40 193.23 C 130.06 190.58 139.08 195.82 141.31 203.46 C 145.04 213.03 136.04 224.27 125.99 223.58 C 117.37 223.25 109.99 214.76 111.34 206.13 C 112.04 200.16 116.61 194.87 122.40 193.23 Z" />
</g>
<g id="#7e7e7eff">
<path fill="#7e7e7e" opacity="1.00" d=" M 117.48 13.75 C 123.69 12.86 130.32 13.11 136.04 15.95 C 147.80 21.61 155.08 35.81 151.63 48.60 C 149.02 60.48 138.17 70.04 125.99 70.88 C 110.07 72.84 94.45 59.08 94.49 43.02 C 93.60 29.37 104.10 16.22 117.48 13.75 M 118.42 27.43 C 111.42 29.85 106.93 37.41 108.38 44.74 C 109.19 51.53 115.46 56.82 122.09 57.50 C 130.66 58.36 139.18 50.71 138.77 42.00 C 139.22 32.00 127.80 23.53 118.42 27.43 Z" />
<path fill="#7e7e7e" opacity="1.00" d=" M 188.37 56.38 C 201.20 52.68 216.05 58.83 222.34 70.64 C 227.53 80.34 226.50 93.04 219.73 101.73 C 210.28 114.92 189.08 116.74 177.36 105.65 C 171.61 100.73 168.27 93.44 167.59 85.97 C 166.82 72.92 175.68 59.92 188.37 56.38 M 193.30 69.09 C 187.76 70.22 183.32 74.72 181.70 80.06 C 179.32 88.22 184.90 97.28 193.05 99.25 C 201.05 101.35 209.91 95.79 211.61 87.73 C 214.78 77.31 203.83 66.14 193.30 69.09 Z" />
<path fill="#7e7e7e" opacity="1.00" d=" M 45.51 57.81 C 51.51 56.90 57.96 56.78 63.59 59.35 C 74.27 63.83 81.40 75.42 80.63 86.97 C 80.62 101.55 67.49 114.46 53.01 114.73 C 43.64 115.32 34.25 110.72 28.64 103.28 C 25.21 98.85 23.53 93.33 22.75 87.86 C 21.57 74.00 31.86 60.47 45.51 57.81 M 46.37 71.26 C 40.18 73.69 35.62 80.31 36.38 87.06 C 36.91 95.89 46.11 103.01 54.80 100.95 C 62.43 99.60 68.11 91.76 67.26 84.12 C 66.39 79.95 64.45 75.69 60.79 73.26 C 56.71 70.25 51.12 69.49 46.37 71.26 Z" />
<path fill="#7e7e7e" opacity="1.00" d=" M 192.40 135.77 C 198.18 134.79 204.40 134.85 209.82 137.34 C 217.90 140.82 224.24 148.14 226.30 156.73 C 230.27 169.81 222.68 184.88 210.29 190.28 C 201.51 194.13 190.76 193.55 182.64 188.36 C 170.01 180.67 165.50 162.73 172.90 149.95 C 176.88 142.62 184.35 137.60 192.40 135.77 M 193.37 149.29 C 188.92 150.73 185.27 154.35 183.77 158.78 C 180.20 167.07 186.43 177.24 194.99 179.04 C 204.02 181.06 214.08 173.47 213.70 164.00 C 214.19 153.88 202.89 145.64 193.37 149.29 Z" />
<path fill="#7e7e7e" opacity="1.00" d=" M 45.39 139.42 C 59.70 135.39 76.66 143.67 80.94 158.20 C 86.51 173.19 76.58 191.38 61.09 195.10 C 45.60 199.94 27.79 188.79 24.97 172.90 C 21.80 158.65 31.21 143.00 45.39 139.42 M 49.36 152.19 C 43.02 154.08 37.77 160.14 38.26 166.99 C 37.53 175.20 44.94 182.53 52.99 182.57 C 61.68 183.12 69.79 174.72 68.73 166.02 C 68.56 156.74 58.16 149.36 49.36 152.19 Z" />
<path fill="#7e7e7e" opacity="1.00" d=" M 121.42 179.61 C 127.83 178.77 134.69 179.24 140.39 182.55 C 149.52 187.48 155.89 197.51 155.56 208.00 C 155.91 218.45 149.66 228.56 140.57 233.51 C 134.49 236.96 127.20 237.29 120.43 236.29 C 105.27 233.46 94.37 216.60 98.43 201.64 C 100.83 190.65 110.27 181.41 121.42 179.61 M 122.40 193.23 C 116.61 194.87 112.04 200.16 111.34 206.13 C 109.99 214.76 117.37 223.25 125.99 223.58 C 136.04 224.27 145.04 213.03 141.31 203.46 C 139.08 195.82 130.06 190.58 122.40 193.23 Z" />
</g>
<g id="#e78200ff">
<path fill="#e78200" opacity="1.00" d=" M 133.47 88.58 C 136.63 87.97 140.23 88.05 142.86 90.15 C 147.31 93.58 147.71 100.86 143.85 104.90 C 139.57 109.47 131.01 108.55 127.99 102.95 C 124.35 97.91 127.80 90.27 133.47 88.58 Z" />
<path fill="#e78200" opacity="1.00" d=" M 104.58 89.74 C 108.55 88.69 113.31 89.75 115.74 93.27 C 119.69 98.13 117.32 106.22 111.51 108.43 C 104.94 111.82 96.84 104.99 97.70 98.05 C 98.48 94.41 100.85 90.83 104.58 89.74 Z" />
<path fill="#e78200" opacity="1.00" d=" M 147.62 113.58 C 153.80 110.01 162.25 116.00 161.60 122.94 C 161.84 129.44 154.25 134.47 148.30 132.00 C 144.15 130.29 141.05 125.71 141.70 121.18 C 142.50 117.97 144.51 114.94 147.62 113.58 Z" />
<path fill="#e78200" opacity="1.00" d=" M 91.44 114.46 C 98.92 111.31 107.45 120.46 103.80 127.75 C 101.37 133.86 92.51 136.05 87.90 131.13 C 82.12 126.60 84.45 116.36 91.44 114.46 Z" />
<path fill="#e78200" opacity="1.00" d=" M 134.39 138.29 C 140.46 135.14 148.67 140.18 148.64 147.00 C 149.30 154.49 139.47 160.46 133.35 155.70 C 126.66 152.11 127.41 141.14 134.39 138.29 Z" />
<path fill="#e78200" opacity="1.00" d=" M 106.35 139.15 C 112.28 136.66 119.73 141.56 119.69 148.00 C 120.43 155.41 111.05 161.59 104.76 157.08 C 97.48 153.50 98.51 141.38 106.35 139.15 Z" />
</g>
</svg>

<?xml version="1.0" encoding="utf-8"?>
<!-- Generator: Adobe Illustrator 26.0.3, SVG Export Plug-In . SVG Version: 6.00 Build 0)  -->
<svg version="1.1" id="Layer_1" xmlns="http://www.w3.org/2000/svg" xmlns:xlink="http://www.w3.org/1999/xlink" x="0px" y="0px"
	 viewBox="0 0 250 250" style="enable-background:new 0 0 250 250;" xml:space="preserve">
<style type="text/css">
	.st0{fill:#FFFFFF;}
	.st1{fill:#7E7E7E;}
	.st2{fill:#E78200;}
</style>
<g id="_x23_ffffffff">
	<path class="st0" d="M118.4,27.4c9.4-3.9,20.8,4.6,20.4,14.6c0.4,8.7-8.1,16.4-16.7,15.5c-6.6-0.7-12.9-6-13.7-12.8
		C106.9,37.4,111.4,29.9,118.4,27.4z"/>
	<path class="st0" d="M193.3,69.1c10.5-2.9,21.5,8.2,18.3,18.6c-1.7,8.1-10.6,13.6-18.6,11.5c-8.2-2-13.7-11-11.4-19.2
		C183.3,74.7,187.8,70.2,193.3,69.1z"/>
	<path class="st0" d="M46.4,71.3c4.8-1.8,10.3-1,14.4,2c3.7,2.4,5.6,6.7,6.5,10.9c0.8,7.6-4.8,15.5-12.5,16.8
		c-8.7,2.1-17.9-5.1-18.4-13.9C35.6,80.3,40.2,73.7,46.4,71.3z"/>
	<path class="st0" d="M193.4,149.3c9.5-3.6,20.8,4.6,20.3,14.7c0.4,9.5-9.7,17.1-18.7,15c-8.6-1.8-14.8-12-11.2-20.3
		C185.3,154.4,188.9,150.7,193.4,149.3z"/>
	<path class="st0" d="M49.4,152.2c8.8-2.8,19.2,4.6,19.4,13.8c1.1,8.7-7.1,17.1-15.7,16.6c-8.1,0-15.5-7.4-14.7-15.6
		C37.8,160.1,43,154.1,49.4,152.2z"/>
	<path class="st0" d="M122.4,193.2c7.7-2.6,16.7,2.6,18.9,10.2c3.7,9.6-5.3,20.8-15.3,20.1c-8.6-0.3-16-8.8-14.7-17.4
		C112,200.2,116.6,194.9,122.4,193.2z"/>
</g>
<g id="_x23_7e7e7eff">
	<path class="st1" d="M117.5,13.8c6.2-0.9,12.8-0.6,18.6,2.2c11.8,5.7,19,19.9,15.6,32.6C149,60.5,138.2,70,126,70.9
		c-15.9,2-31.5-11.8-31.5-27.9C93.6,29.4,104.1,16.2,117.5,13.8 M118.4,27.4c-7,2.4-11.5,10-10,17.3c0.8,6.8,7.1,12.1,13.7,12.8
		c8.6,0.9,17.1-6.8,16.7-15.5C139.2,32,127.8,23.5,118.4,27.4z"/>
	<path class="st1" d="M188.4,56.4c12.8-3.7,27.7,2.5,34,14.3c5.2,9.7,4.2,22.4-2.6,31.1c-9.4,13.2-30.6,15-42.4,3.9
		c-5.8-4.9-9.1-12.2-9.8-19.7C166.8,72.9,175.7,59.9,188.4,56.4 M193.3,69.1c-5.5,1.1-10,5.6-11.6,11c-2.4,8.2,3.2,17.2,11.4,19.2
		c8,2.1,16.9-3.5,18.6-11.5C214.8,77.3,203.8,66.1,193.3,69.1z"/>
	<path class="st1" d="M45.5,57.8c6-0.9,12.5-1,18.1,1.5c10.7,4.5,17.8,16.1,17,27.6c0,14.6-13.1,27.5-27.6,27.8
		c-9.4,0.6-18.8-4-24.4-11.5c-3.4-4.4-5.1-9.9-5.9-15.4C21.6,74,31.9,60.5,45.5,57.8 M46.4,71.3c-6.2,2.4-10.8,9-10,15.8
		c0.5,8.8,9.7,16,18.4,13.9c7.6-1.3,13.3-9.2,12.5-16.8c-0.9-4.2-2.8-8.4-6.5-10.9C56.7,70.2,51.1,69.5,46.4,71.3z"/>
	<path class="st1" d="M192.4,135.8c5.8-1,12-0.9,17.4,1.6c8.1,3.5,14.4,10.8,16.5,19.4c4,13.1-3.6,28.2-16,33.6
		c-8.8,3.9-19.5,3.3-27.6-1.9c-12.6-7.7-17.1-25.6-9.7-38.4C176.9,142.6,184.4,137.6,192.4,135.8 M193.4,149.3
		c-4.4,1.4-8.1,5.1-9.6,9.5c-3.6,8.3,2.7,18.5,11.2,20.3c9,2,19.1-5.6,18.7-15C214.2,153.9,202.9,145.6,193.4,149.3z"/>
	<path class="st1" d="M45.4,139.4c14.3-4,31.3,4.2,35.6,18.8c5.6,15-4.4,33.2-19.9,36.9c-15.5,4.8-33.3-6.3-36.1-22.2
		C21.8,158.6,31.2,143,45.4,139.4 M49.4,152.2c-6.3,1.9-11.6,7.9-11.1,14.8c-0.7,8.2,6.7,15.5,14.7,15.6c8.7,0.5,16.8-7.9,15.7-16.6
		C68.6,156.7,58.2,149.4,49.4,152.2z"/>
	<path class="st1" d="M121.4,179.6c6.4-0.8,13.3-0.4,19,2.9c9.1,4.9,15.5,15,15.2,25.4c0.4,10.4-5.9,20.6-15,25.5
		c-6.1,3.5-13.4,3.8-20.1,2.8c-15.2-2.8-26.1-19.7-22-34.6C100.8,190.6,110.3,181.4,121.4,179.6 M122.4,193.2
		c-5.8,1.6-10.4,6.9-11.1,12.9c-1.3,8.6,6,17.1,14.7,17.4c10,0.7,19-10.6,15.3-20.1C139.1,195.8,130.1,190.6,122.4,193.2z"/>
</g>
<g id="_x23_e78200ff">
	<path class="st2" d="M133.5,88.6c3.2-0.6,6.8-0.5,9.4,1.6c4.4,3.4,4.9,10.7,1,14.8c-4.3,4.6-12.8,3.7-15.9-2
		C124.3,97.9,127.8,90.3,133.5,88.6z"/>
	<path class="st2" d="M104.6,89.7c4-1,8.7,0,11.2,3.5c4,4.9,1.6,13-4.2,15.2c-6.6,3.4-14.7-3.4-13.8-10.4
		C98.5,94.4,100.8,90.8,104.6,89.7z"/>
	<path class="st2" d="M147.6,113.6c6.2-3.6,14.6,2.4,14,9.4c0.2,6.5-7.4,11.5-13.3,9.1c-4.2-1.7-7.2-6.3-6.6-10.8
		C142.5,118,144.5,114.9,147.6,113.6z"/>
	<path class="st2" d="M91.4,114.5c7.5-3.2,16,6,12.4,13.3c-2.4,6.1-11.3,8.3-15.9,3.4C82.1,126.6,84.4,116.4,91.4,114.5z"/>
	<path class="st2" d="M134.4,138.3c6.1-3.1,14.3,1.9,14.2,8.7c0.7,7.5-9.2,13.5-15.3,8.7C126.7,152.1,127.4,141.1,134.4,138.3z"/>
	<path class="st2" d="M106.3,139.1c5.9-2.5,13.4,2.4,13.3,8.9c0.7,7.4-8.6,13.6-14.9,9.1C97.5,153.5,98.5,141.4,106.3,139.1z"/>
</g>
</svg>
